X: 2073
T: Gavot.
%R: gavotte
B: Henry Playford "Apollo's Banquet", London 1687 (5th Edition)
F: https://archive.org/details/apollosbanquetco01rugg
Z: 2017 John Chambers <jc:trillian.mit.edu>
M: C|
L: 1/8
K: C
% - - - - - - - - - -
|:\
g2g2 efg2 | f3e d2c2 |\
e3f g2a2 | f3e d4 ::\
d3e f2fg | e3f g2d2 |
e2ed c2B2 | A3d B2G2 !segno!|\
d3e f2fg | e3f g2a2 |\
d2g2 f2(fd) | d3c c4 |]
% - - - - - - - - - -

%%sep 1 1 500
%%sep 1 1 500

